X: 35781
T: Sally Leaf, The
R: polka
M: 2/4
K: Edorian
E>F GE|A>G FD|E>F GB|AF E2|
E>F GE|A>G FD|G/F/G/A/ BG|AF E2:|
|:G>F GA|B>A BA|G/F/G/A/ BG|Ad AF|
G>F GA|B>A BA|G/F/G/A/ BG|AF E2:|

